Origami/32x32/apps/tormessenger.svg

<svg width="32" height="32" version="1.1" viewBox="0 0 32 32.000001" xmlns="http://www.w3.org/2000/svg">
 <path d="M 16,2 A 14,13 0 0 0 2,15 14,13 0 0 0 7,24.957 L 7,30 10.721,27.033 A 14,13 0 0 0 16,28 14,13 0 0 0 30,15 14,13 0 0 0 16,2 Z" style="fill:#bad632"/>
 <path d="M 16,2 A 14,13 0 0 0 2,15 14,13 0 0 0 2.0215,15.414 14,13 0 0 1 15.9995,3 14,13 0 0 1 29.9785,15.586 14,13 0 0 0 29.9995,15 a 14,13 0 0 0 -14,-13 z" style="fill:#ffffff;opacity:.2"/>
 <path d="m2.0215 15.414a14 13 0 0 0 -0.0215 0.586 14 13 0 0 0 5 9.957v-1a14 13 0 0 1 -4.9785 -9.543zm27.958 0.172a14 13 0 0 1 -13.979 12.414 14 13 0 0 1 -5.279 -0.967l-3.721 2.967v1l3.721-2.967a14 13 0 0 0 5.279 0.967 14 13 0 0 0 14 -13 14 13 0 0 0 -0.021 -0.414z" style="opacity:.2"/>
 <path d="m16 7a9 9 0 0 0 -9 9 9 9 0 0 0 9 9 9 9 0 0 0 1 -0.06641v3.019531a14 13 0 0 0 3 -0.5v-3.394531a9 9 0 0 0 5 -8.05859 9 9 0 0 0 -9 -9z" style="opacity:.1"/>
 <path d="m16 6a9 9 0 0 0 -9 9 9 9 0 0 0 9 9 9 9 0 0 0 1 -0.06641v4.019531a14 13 0 0 0 3 -0.5v-4.394531a9 9 0 0 0 5 -8.05859 9 9 0 0 0 -9 -9z" style="fill:#578418"/>
 <path d="m16 11a5 5 0 0 0 -5 5v6.474609a9 9 0 0 0 3 1.289063v-3.183594a5 5 0 0 0 2 0.419922 5 5 0 0 0 5 -5 5 5 0 0 0 -5 -5z" style="opacity:.1"/>
 <path d="m16 10a5 5 0 0 0 -5 5v7.474609a9 9 0 0 0 3 1.289063v-4.183594a5 5 0 0 0 2 0.419922 5 5 0 0 0 5 -5 5 5 0 0 0 -5 -5z" style="fill:#252920"/>
</svg>

<?xml version="1.0" encoding="UTF-8" standalone="no"?>
<svg
   xmlns:dc="http://purl.org/dc/elements/1.1/"
   xmlns:cc="http://creativecommons.org/ns#"
   xmlns:rdf="http://www.w3.org/1999/02/22-rdf-syntax-ns#"
   xmlns:svg="http://www.w3.org/2000/svg"
   xmlns="http://www.w3.org/2000/svg"
   viewBox="0 0 32 32.000001"
   version="1.1"
   width="32"
   height="32"
   id="svg2">
  <defs
     id="defs11" />
  <metadata
     id="metadata51">
    <rdf:RDF>
      <cc:Work
         rdf:about="">
        <dc:format>image/svg+xml</dc:format>
        <dc:type
           rdf:resource="http://purl.org/dc/dcmitype/StillImage" />
        <dc:title></dc:title>
      </cc:Work>
    </rdf:RDF>
  </metadata>
  <path
     style="fill:#bad632;fill-opacity:1"
     d="M 16,2 A 14,13 0 0 0 2,15 14,13 0 0 0 7,24.957 L 7,30 10.721,27.033 A 14,13 0 0 0 16,28 14,13 0 0 0 30,15 14,13 0 0 0 16,2 Z"
     id="path37" />
  <path
     d="M 16,2 A 14,13 0 0 0 2,15 14,13 0 0 0 2.0215,15.414 14,13 0 0 1 15.9995,3 14,13 0 0 1 29.9785,15.586 14,13 0 0 0 29.9995,15 a 14,13 0 0 0 -14,-13 z"
     id="path4383"
     style="opacity:0.2;fill:#ffffff" />
  <path
     d="M 2.0215,15.414 A 14,13 0 0 0 2,16 14,13 0 0 0 7,25.957 l 0,-1 A 14,13 0 0 1 2.0215,15.414 Z m 27.958,0.172 A 14,13 0 0 1 16.0005,28 14,13 0 0 1 10.7215,27.033 L 7.0005,30 l 0,1 3.721,-2.967 a 14,13 0 0 0 5.279,0.967 14,13 0 0 0 14,-13 14,13 0 0 0 -0.021,-0.414 z"
     id="path4388"
     style="opacity:0.2" />
  <path
     id="path4149"
     d="m 16,7 a 9,9 0 0 0 -9,9 9,9 0 0 0 9,9 9,9 0 0 0 1,-0.06641 l 0,3.019531 a 14,13 0 0 0 3,-0.5 L 20,24.05859 A 9,9 0 0 0 25,16 9,9 0 0 0 16,7 Z"
     style="opacity:0.1;fill:#000000;fill-opacity:1;stroke:none;stroke-width:4;stroke-linecap:round;stroke-linejoin:round;stroke-miterlimit:4;stroke-dasharray:none;stroke-opacity:1" />
  <path
     id="path4139"
     d="m 16,6 a 9,9 0 0 0 -9,9 9,9 0 0 0 9,9 9,9 0 0 0 1,-0.06641 l 0,4.019531 a 14,13 0 0 0 3,-0.5 L 20,23.05859 A 9,9 0 0 0 25,15 9,9 0 0 0 16,6 Z"
     style="opacity:1;fill:#578418;fill-opacity:1;stroke:none;stroke-width:4;stroke-linecap:round;stroke-linejoin:round;stroke-miterlimit:4;stroke-dasharray:none;stroke-opacity:1" />
  <path
     id="path4151"
     d="m 16,11 a 5,5 0 0 0 -5,5 l 0,6.474609 a 9,9 0 0 0 3,1.289063 l 0,-3.183594 A 5,5 0 0 0 16,21 5,5 0 0 0 21,16 5,5 0 0 0 16,11 Z"
     style="opacity:0.1;fill:#000000;fill-opacity:1;stroke:none;stroke-width:4;stroke-linecap:round;stroke-linejoin:round;stroke-miterlimit:4;stroke-dasharray:none;stroke-opacity:1" />
  <path
     id="path4141"
     d="m 16,10 a 5,5 0 0 0 -5,5 l 0,7.474609 a 9,9 0 0 0 3,1.289063 l 0,-4.183594 A 5,5 0 0 0 16,20 5,5 0 0 0 21,15 5,5 0 0 0 16,10 Z"
     style="opacity:1;fill:#252920;fill-opacity:1;stroke:none;stroke-width:4;stroke-linecap:round;stroke-linejoin:round;stroke-miterlimit:4;stroke-dasharray:none;stroke-opacity:1" />
</svg>
